app/assets/images/mfa-options/piv_cac.svg

<svg width="42" height="42" viewBox="0 0 42 42" fill="none" xmlns="http://www.w3.org/2000/svg"><path fill-rule="evenodd" clip-rule="evenodd" d="M3.95652 8.65217C3.78844 8.65217 3.65217 8.78843 3.65217 8.95652V15.779H38.3478V8.95652C38.3478 8.78844 38.2116 8.65217 38.0435 8.65217H3.95652ZM42 8.95652C42 6.77139 40.2286 5 38.0435 5H3.95652C1.77139 5 0 6.7714 0 8.95652V32.721C0 34.9061 1.7714 36.6775 3.95652 36.6775H38.0435C40.2286 36.6775 42 34.9061 42 32.721V8.95652ZM38.3478 19.4312H3.65217V32.721C3.65217 32.8891 3.78843 33.0254 3.95652 33.0254H38.0435C38.2116 33.0254 38.3478 32.8891 38.3478 32.721V19.4312Z" fill="#0071BB"/></svg>

<svg width="42" height="42" viewBox="0 0 42 42" fill="none" xmlns="http://www.w3.org/2000/svg"><path fill-rule="evenodd" clip-rule="evenodd" d="M3.957 8.652a.304.304 0 0 0-.305.305v6.822h34.696V8.957a.304.304 0 0 0-.304-.305H3.956ZM42 8.957A3.957 3.957 0 0 0 38.044 5H3.956A3.957 3.957 0 0 0 0 8.957V32.72a3.957 3.957 0 0 0 3.957 3.957h34.087A3.957 3.957 0 0 0 42 32.72V8.957ZM38.348 19.43H3.652v13.29c0 .168.136.304.305.304h34.087a.304.304 0 0 0 .304-.304V19.43Z" fill="#0071BB"/></svg>
